X: 74
T:Y Deryn Du
M:6/8
L:1/8
Q:130
C:Trad
S:Blodau'r Grug Collection Vol. 3
A:Wales
Z:brian_martin12345@yahoo.com
K:A
A|A2AA2a|a3e2=g|f2ed2c|d3-d2c|d2dB2d|c3A2c/d/|e2AG2A/c/|B3-B2:||!
c/d/|e2cA2c|B2GE2G|A2ce2d|c3-c2c|d2e fga|e2cA2a|f2dB2G|A3-A2:||

